X:1
T:Killer Bees Attack James Woods Flute Part
C:copyright 1998 Jim Thompson 
N:To be played with Kaubells' tune of that name
R:Jig
E:14
M:6/8
K:Am
|:"tr"A3 "tr"E3|"tr"A3 "tr"E3|"tr"A3 "tr"d3|"tr"A3 "tr"E3|
|"tr"A3 "tr"E3|"tr"A3 "tr"E3|"tr"A3 "tr"d3|"tr"A3 "tr"E3:|
|:AdA _BdB|A3 c3|AdA _BdB|_B_eB B3|
|AdA _BdB|A3 c3|AdA _BdB|1 _B_eB BeB:|2 B2e d2^G|]
\bigskip              % a bit of space
